X:114
M:4/4
L:1/4
K:A
F2 A A | B c B ^A | B2 z B | A F B c | (B/A/ B) A2 | F2 A A | B c B ^A | B2 z B | A F B c | (B/A/ B) A2 | z B c B | G A B A | F2 z F | B A B c | A G E2 | z !sintro!F A B | c A (G/F/ G) | F4 !eintro!|]
